X:4438
T:Mrs. Crotty's Christening
O:england
R:reel
D:John Williams
M:C|
K:D
d3A BAFA|~A2dA BAFA|BEED E4|(3Bcd ef gfef|
dedA BAFA|~A2dA BAFA|BEED E4|1 (3Bcd ef d4:|2 (3Bcd ef d2Ad||
|:d2Ad d2Ad|d2ef gecA|d2Ad d2FA|1 B2AF GFEF:|2 B2AF E4||


